!!!OTL: Das boese Stiefmuetterlein Es war einmal ein Kindlein klein,
!!!ARE: Europa, Mitteleuropa, Deutschland (), Sachsen, Grossenhain, Basslitz
!!!YOR: 5, S. 311
!!    1929 aufgezeichnet
!!!SCT: Q0119
!!!YEM: Copyright 1995, estate of Helmut Schaffrath.
**kern
*ICvox
*Ivox
*M3/4
*k[f#]
*G:
{8d
=1
8g
8d
4g
4b
=2
8a
8g
4a
8r}
{8d
=3
8a
8d
4a
4dd
=4
8cc#
8ee
4dd
8r}
{8dd
=5
8a
8a
8a
8cc
4cc
=6
8b
8a
4g}
{4dd
=7
8a
8a
8a
8cc
4cc
=8
8b
8a
4g
8r}
{8dd
=9
8a
8a
8a
8cc
4cc
=10
8b
8a
4g}
{4dd
=11
8a
8a
8a
8cc
4cc
=12
8b
8a
4g
8r}
==
!!!AGN: Ballade, Waise, boese Stiefmutter, Klage am Grab, Geist
!!!ONB: ESAC (Essen Associative Code) Database: BALLADE
!!!AMT: simple triple
!!!AIN: vox
!!!EED: Helmut Schaffrath
!!!EEV: 1.0
*-
